src/assets/images/radio.svg

<svg viewBox="0 0 80 81" xmlns="http://www.w3.org/2000/svg"><title>Radio Icon</title><path stroke="null" fill="currentColor" d="M13.54 62.9C.84 48.03 2.6 25.6 17.47 12.9c1.02-.86 2.14-1.7 3.54-2.62l-1.95-2.95c-1.52 1-2.75 1.93-3.88 2.88C7.25 16.98 2.44 26.43 1.62 36.8c-.8 10.4 2.46 20.47 9.23 28.4 2.34 2.74 5.1 5.17 8.2 7.2L21 69.46c-2.82-1.86-5.33-4.07-7.46-6.56zm13.14-39.2c1.1-.94 2.27-1.75 3.52-2.45l-1.72-3.1c-1.46.8-2.83 1.76-4.1 2.84-5.04 4.3-8.1 10.3-8.62 16.92-.52 6.6 1.57 13.03 5.87 18.07 1.92 2.23 4.22 4.1 6.87 5.57l1.7-3.1c-2.26-1.26-4.23-2.87-5.87-4.8-7.62-8.9-6.56-22.36 2.36-29.98zm13.82 5.53c-5.86 0-10.63 4.77-10.63 10.64S34.64 50.5 40.5 50.5s10.64-4.77 10.64-10.63-4.77-10.64-10.64-10.64zm0 17.73c-3.9 0-7.1-3.2-7.1-7.1 0-3.9 3.2-7.08 7.1-7.08 3.9 0 7.1 3.18 7.1 7.1 0 3.9-3.2 7.08-7.1 7.08zm29.66-32.42c-2.34-2.74-5.1-5.17-8.2-7.22L60 10.28c2.83 1.86 5.34 4.07 7.46 6.56 6.15 7.2 9.13 16.37 8.4 25.8-.76 9.45-5.14 18.04-12.34 24.2-1 .86-2.14 1.7-3.53 2.6l1.94 2.96c1.5-.98 2.77-1.92 3.88-2.88 7.92-6.76 12.74-16.2 13.55-26.6.83-10.38-2.45-20.46-9.2-28.38zm-10.78 9.2c-1.92-2.23-4.23-4.1-6.87-5.57l-1.7 3.1c2.26 1.26 4.24 2.87 5.88 4.8 3.7 4.3 5.48 9.8 5.03 15.47-.44 5.67-3.06 10.82-7.38 14.5-1.08.93-2.27 1.76-3.5 2.45l1.7 3.1c1.46-.8 2.84-1.77 4.1-2.84 5.04-4.3 8.1-10.32 8.63-16.93.5-6.6-1.57-13.02-5.88-18.07z" fill-rule="evenodd"/></svg>

<?xml version="1.0" standalone="no"?><!-- Generator: Gravit.io --><svg xmlns="http://www.w3.org/2000/svg" xmlns:xlink="http://www.w3.org/1999/xlink" style="isolation:isolate" viewBox="0 0 80 81" width="80" height="81"><defs><clipPath id="_clipPath_ubGeXlO0Muatp6lzUK0xfNU4TDY7Sy5Z"><rect width="80" height="81"/></clipPath></defs><g clip-path="url(#_clipPath_ubGeXlO0Muatp6lzUK0xfNU4TDY7Sy5Z)"><path d=" M 13.54 62.9 C 0.84 48.03 2.6 25.6 17.47 12.9 C 18.49 12.04 19.61 11.2 21.01 10.28 L 19.06 7.33 C 17.54 8.33 16.31 9.26 15.18 10.21 C 7.25 16.98 2.44 26.43 1.62 36.8 C 0.82 47.2 4.08 57.27 10.85 65.2 C 13.19 67.94 15.95 70.37 19.05 72.4 L 21 69.46 C 18.18 67.6 15.67 65.39 13.54 62.9 Z  M 26.68 23.7 C 27.78 22.76 28.95 21.95 30.2 21.25 L 28.48 18.15 C 27.02 18.95 25.65 19.91 24.38 20.99 C 19.34 25.29 16.28 31.29 15.76 37.91 C 15.24 44.51 17.33 50.94 21.63 55.98 C 23.55 58.21 25.85 60.08 28.5 61.55 L 30.2 58.45 C 27.94 57.19 25.97 55.58 24.33 53.65 C 16.71 44.75 17.77 31.29 26.69 23.67 L 26.68 23.7 Z  M 40.5 29.23 C 34.64 29.23 29.87 34 29.87 39.87 C 29.87 45.74 34.64 50.5 40.5 50.5 C 46.36 50.5 51.14 45.73 51.14 39.87 C 51.14 34.01 46.37 29.23 40.5 29.23 Z  M 40.5 46.96 C 36.6 46.96 33.4 43.76 33.4 39.86 C 33.4 35.96 36.6 32.78 40.5 32.78 C 44.4 32.78 47.6 35.96 47.6 39.88 C 47.6 43.78 44.4 46.96 40.5 46.96 Z  M 70.16 14.54 C 67.82 11.8 65.06 9.37 61.96 7.32 L 60 10.28 C 62.83 12.14 65.34 14.35 67.46 16.84 C 73.61 24.04 76.59 33.21 75.86 42.64 C 75.1 52.09 70.72 60.68 63.52 66.84 C 62.52 67.7 61.38 68.54 59.99 69.44 L 61.93 72.4 C 63.43 71.42 64.7 70.48 65.81 69.52 C 73.73 62.76 78.55 53.32 79.36 42.92 C 80.19 32.54 76.91 22.46 70.16 14.54 L 70.16 14.54 Z  M 59.38 23.74 C 57.46 21.51 55.15 19.64 52.51 18.17 L 50.81 21.27 C 53.07 22.53 55.05 24.14 56.69 26.07 C 60.39 30.37 62.17 35.87 61.72 41.54 C 61.28 47.21 58.66 52.36 54.34 56.04 C 53.26 56.97 52.07 57.8 50.84 58.49 L 52.54 61.59 C 54 60.79 55.38 59.82 56.64 58.75 C 61.68 54.45 64.74 48.43 65.27 41.82 C 65.77 35.22 63.7 28.8 59.39 23.75 L 59.38 23.74 Z " fill-rule="evenodd" fill="rgb(255,255,255)"/></g></svg>
